img/icons/tooltip/Whatsapp.svg

<svg width="20" height="20" viewBox="0 0 20 20" fill="none" xmlns="http://www.w3.org/2000/svg">
<path d="M13.9355 11.7168C13.7227 11.6074 12.6621 11.0879 12.4648 11.0176C12.2676 10.9434 12.123 10.9082 11.9805 11.127C11.8359 11.3438 11.4258 11.8262 11.2969 11.9727C11.1719 12.1172 11.0449 12.1348 10.832 12.0273C9.56641 11.3945 8.73633 10.8984 7.90234 9.4668C7.68164 9.08594 8.12305 9.11328 8.53516 8.29102C8.60547 8.14648 8.57031 8.02344 8.51562 7.91406C8.46094 7.80469 8.03125 6.74609 7.85156 6.31445C7.67773 5.89453 7.49805 5.95312 7.36719 5.94531C7.24219 5.9375 7.09961 5.9375 6.95508 5.9375C6.81055 5.9375 6.57813 5.99219 6.38086 6.20508C6.18359 6.42188 5.62695 6.94336 5.62695 8.00195C5.62695 9.06055 6.39844 10.0859 6.50391 10.2305C6.61328 10.375 8.02148 12.5469 10.1836 13.4824C11.5508 14.0723 12.0859 14.123 12.7695 14.0215C13.1855 13.959 14.043 13.502 14.2207 12.9961C14.3984 12.4922 14.3984 12.0605 14.3457 11.9707C14.293 11.875 14.1484 11.8203 13.9355 11.7168Z" fill="#8C8D92" stroke="#8C8D92" stroke-width="0.5"/>
<path d="M18.0704 6.60938C17.629 5.56055 16.9962 4.61914 16.1896 3.81055C15.3829 3.00391 14.4415 2.36914 13.3907 1.92969C12.3165 1.47852 11.1759 1.25 10.0001 1.25H9.96105C8.77745 1.25586 7.63097 1.49023 6.55285 1.95117C5.51183 2.39648 4.57824 3.0293 3.77941 3.83594C2.98058 4.64258 2.35363 5.58008 1.92003 6.625C1.47081 7.70703 1.24425 8.85742 1.25011 10.041C1.25597 11.3965 1.58019 12.7422 2.18761 13.9453V16.9141C2.18761 17.4102 2.58995 17.8125 3.08605 17.8125H6.05675C7.25988 18.4199 8.60558 18.7441 9.96105 18.75H10.0021C11.172 18.75 12.3068 18.5234 13.3751 18.0801C14.42 17.6445 15.3595 17.0195 16.1642 16.2207C16.9708 15.4219 17.6056 14.4883 18.0489 13.4473C18.5099 12.3691 18.7443 11.2227 18.7501 10.0391C18.756 8.84961 18.5255 7.69531 18.0704 6.60938ZM15.1193 15.1641C13.7501 16.5195 11.9337 17.2656 10.0001 17.2656H9.96691C8.78917 17.2598 7.61925 16.9668 6.58605 16.416L6.42199 16.3281H3.67199V13.5781L3.5841 13.4141C3.03331 12.3809 2.74035 11.2109 2.73449 10.0332C2.72667 8.08594 3.47081 6.25781 4.83605 4.88086C6.19933 3.50391 8.0216 2.74219 9.96886 2.73438H10.0021C10.9786 2.73438 11.9259 2.92383 12.8185 3.29883C13.6896 3.66406 14.4708 4.18945 15.1427 4.86133C15.8126 5.53125 16.34 6.31445 16.7052 7.18555C17.0841 8.08789 17.2735 9.04492 17.2696 10.0332C17.2579 11.9785 16.4943 13.8008 15.1193 15.1641Z" fill="#8C8D92" stroke="#8C8D92" stroke-width="0.5"/>
</svg>

<svg width="20" height="20" fill="none" xmlns="http://www.w3.org/2000/svg"><path d="M13.935 11.717c-.212-.11-1.273-.63-1.47-.7-.197-.074-.342-.109-.485.11-.144.217-.554.7-.683.846-.125.144-.252.162-.465.054-1.266-.632-2.096-1.129-2.93-2.56-.22-.381.221-.354.633-1.176.07-.145.035-.268-.02-.377-.054-.11-.484-1.168-.663-1.6-.174-.42-.354-.36-.485-.369-.125-.008-.267-.008-.412-.008a.797.797 0 0 0-.574.268c-.197.217-.754.738-.754 1.797s.771 2.084.877 2.228c.11.145 1.517 2.317 3.68 3.252 1.367.59 1.902.641 2.586.54.415-.063 1.273-.52 1.45-1.026.178-.504.178-.936.126-1.025-.053-.096-.198-.15-.41-.254Z" fill="#8C8D92" stroke="#8C8D92" stroke-width=".5"/><path d="M18.07 6.61A8.753 8.753 0 0 0 10 1.25h-.039a8.73 8.73 0 0 0-8.71 8.791 8.777 8.777 0 0 0 .937 3.904v2.97c0 .495.402.898.898.898h2.97a8.778 8.778 0 0 0 3.905.937h.041a8.76 8.76 0 0 0 3.373-.67 8.683 8.683 0 0 0 2.79-1.86 8.728 8.728 0 0 0 2.586-6.182 8.716 8.716 0 0 0-.68-3.429Zm-2.95 8.554A7.228 7.228 0 0 1 10 17.266h-.033a7.29 7.29 0 0 1-3.381-.85l-.164-.088h-2.75v-2.75l-.088-.164a7.292 7.292 0 0 1-.85-3.38A7.22 7.22 0 0 1 4.836 4.88a7.21 7.21 0 0 1 5.133-2.147h.033a7.23 7.23 0 0 1 5.14 2.127 7.236 7.236 0 0 1 2.127 5.172 7.238 7.238 0 0 1-2.15 5.131Z" fill="#8C8D92" stroke="#8C8D92" stroke-width=".5"/></svg>
